!!!COM: Robert Schumann
!!!CNT: Deutsch
!!!TXO: Deutsch
!!!OTL: Der Hidalgo
!!!LYR: Geibel
!!!OPR: Drei Gedichte
!!!OPS: Op.30
!!!ONM: No. 3
!!!ENC: Ben Fuhrman
!!!YOR: Schumann Lieder - Max Friedlaender, ed.,
!!!YOR: New York: C. F. Peters, Vol. 2
!!!ODT: 1840/
!!NB: Vocal melody and text only encoded.
!!NB: First instance of melodic material only encoded.
**kern	**silbe
*clefG2	*
*k[b-e-]	*
*M3/4	*
!!created: 06/20/06 10:20
!!proofed and posted: 06/20/06 10:20
!!edit time: 90 minutes
=2	=2
8r	.
{8f	{Es
8g	ist
8a	so
8b-	su2ss
16r	.
16d	zu
=3	=3
(8.f	scher-
16e-)	|
4e-	-zen
8r	.
8d	mit
=4	=4
4.c	Lie-
8d	-dern
8e-	und
8en	mit
=5	=5
4g	Her-
4f	-zen
4r	.
=6	=6
8r	.
8d	und
8g	mit
8d	dem
8g	ern-
8b-	-sten
=7	=7
2.dd}	Streit!}
!! rest to measure 9
=9	=9
8r	.
{8f	Er-
8g	-gla2nzt
8a	des
8.b-	Mon-
16d	-des
=10	=10
4f	Schim-
4en	-mer,
8r	.
8en	da
=11	=11
4.a	treibt's
8g	mich
8.f	fort
16en	vom
=12	=12
(16en	Zim-
16f	|
16g	|
16f)	|
4.f	-mer,
8en	durch
=13	=13
4.a	Platz
8en	und
8en	Gas-
(16f	-sen
16g)	|
=14	=14
2f	weit;
8r	.
8f	da
=15	=15
4.f	bin
8f	zur
(16a	Lieb'
16g)	|
(16en	ich
16c)	|
=16	=16
4cc	im-
8f	-mer
16r	.
16f	wie
8.r	zum
16b-	Ge-
=17	=17
8a	-fecht,
8c	wie
8f	zum
8a	Ge-
8.cc	-fecht
16en	be-
=18	=18
2f}	-reit.}
4r	.
=19	=19
8r	.
{8f	{Es
8g	ist
8a	so
8b-	su2ss
16r	.
16d	zu
=20	=20
(8.f	scher-
16e-)	|
4e-	-zen
8r	.
8d	mit
=21	=21
4.c	Lie-
8d	-dern
8e-	und
8en	mit
=22	=22
(8.g	Her-
16f)	|
4f	-zen
4r	.
=23	=23
8r	.
8B-	und
8e-	mit
8B-	dem
(12e-	ern-
12g)	|
12b-	-sten
=24	=24
(4..ee-	Streit,
16een)	|
4een	und
=25	=25
4.ff	mit
(16e-	dem
16d)	|
8cc	ern-
8dd	-sten
=26	=26
4b-}	Streit.}
4r	.
8r	.
{8c	{Die
=27	=27
*k[b-]	*
4.a	Scho2-
8e	-nen
8.f	von
16a	Se-
=28	=28
4a	-vil-
4c	-la,
8r	.
8c	mit
=29	=29
4.b-	Fa2-
8f#	-cher
8.g	und
16b-	Man-
=30	=30
4b-	-til-
2c	-la,
=31	=31
4.cc	blik-
16b-	-ken
16a	den
8g	Strom
8f#	ent-
=32	=32
4g	-lang;
4r	.
8r	.
8g	sie
=33	=33
4.cc	lau-
(16b-	-schen
16a)	|
8g	mit
8f#	Ge-
=34	=34
8a	-fal-
4g}	-len,}
8r	.
4r	.
=35	=35
8r	.
{8g	{wenn
8g	mei-
8g	-ne
8g	Lie-
(16g	-der
16a)	|
=36	=36
4a	schal-
4g	-len
4r	.
=37	=37
8r	.
8g	zum
8g	Man-
8g	-do-
(16g	-li-
8dd)	|
16cc	-nen
=38	=38
2bn}	klang,]
4r	.
=39	=39
8r	.
{8cc	{und
8bn	dun-
8b-	-kle
8.a	Ro-
16a-	-sen
=40	=40
4g	fal-
(4.g	len-
8g-)	|
=41	=41
8r	.
8f	mir
8en	vom
8e-	Bal-
(16d	-kon
16f)	|
(16b-	zum
16dd)	|
=42	=42
2g}	Dank.}
8r	.
{8c	{Ich
=43	=43
4.a	tra-
8e	-ge,
8.f	wenn
16a	ich
=44	=44
4a	sin-
4c	-ge,
8r	.
8c	die
=45	=45
4.b-	Zi-
8f#	-ther
8.g	und
16b-	die
=46	=46
4b-	Klin-
4c	-ge,
8r	.
8c	vom
=47	=47
4.cc	To-
(16b-	-le-
16a)	|
8g	-dan-
8f	-schen
=48	=48
2g}	Stahl.}
8r	.
{8c	{Ich
=49	=49
4.cc	sing'
(16b-	an
16a)	|
8g	man-
8f#	-chen
=50	=50
8a	Git-
4g	-ter
8r	.
8r	.
8g	und
=51	=51
4.cc	ho2h-
(16b-	-ne
16a)	|
8g	man-
8f#	-chen
=52	=52
8a	Rit-
4g	-ter
8r	.
4r	.
=53	=53
8r	.
8g	mit
8g	kee-
8g	-kem
8.g	Lieb
16g	zu-
=54	=54
2g}	-mal;}
8r	.
{8g	{den
=55	=55
[4g	Da-
(16g]	|
16bn)	|
(16dd	-men
16ff)	|
8een	gilt
8en	die
=56	=56
2e-	Zi-
8d	-ther,
8d-	die
=57	=57
(8c	Klin-
4cc)	|
(16b-	-ge
16a)	|
8g	dem
8a	Ri-
=58	=58
2f}	-val.}
4r	.
=59	=59
*k[b-e-]	*
8r	.
{8f	{Aus
8g	denn
8a	zum
8.b-	A-
16d	-ben
=60	=60
4f	teu-
4e-	-er,
8r	.
8d	schon
=61	=61
4.c	losch
8d	der
8e-	Son-
8en	-ne
=62	=62
4g	Feu-
4f	-er
4r	.
=63	=63
8r	.
8d	jen-
8g	-seits
8d	der
8g	Ber-
8b-	-ge
=64	=64
[2.dd	aus.
=65	=65
4dd]}	|}
4r	.
4r	.
=66	=66
8r	.
{8f	{Der
8g	Mond
8a	nacht
8.b-	Da2mm-
16d	-rung-
=67	=67
4f	-stun-
4en	-den,
8r	.
8e	sie
=68	=68
4.a	brin-
8g	-gen
8f	Lie-
8en	-bes-
=69	=69
(16en	-kun-
16f	|
16g	|
16f)	|
4.f	-den,
8en	sie
=70	=70
4.a	brin-
8en	-gen
(8en	blut'
16f)	|
16g	gen
=71	=71
2f	Strauss,
8r	.
8f	und
=72	=72
4.f	Blu-
8f	-men
(16a	o-
16g)	|
(16en	-der
16c)	|
=73	=73
4cc	Wun-
4.f	-den
8b-	trag'
=74	=74
4..a	mor-
16a	-gen
8cc	ich
8en	nach
=75	=75
2f}	Haus.}
4r	.
=76	=76
8r	.
{8f	{Auf
8g	denn
8a	zum
8.b-	A-
16d	-ben
=77	=77
4f	teu-
4e-	-er,
8r	.
8d	schon
=78	=78
4.c	losch
8d	der
8e-	Son-
8en	-ne
=79	=79
4g	Feu-
4f}	-er}
4r	.
=80	=80
8r	.
{8B-	{jen-
8e-	-seits-
8B-	-der
(12e-	Ber-
12g)	|
12b-	-ge
=81	=81
(4..ee-	aus,
16en)	|
4en	jen-
=82	=82
4.ff	-seits
(16ee-	der
16dd)	|
8cc	Ber-
8dd	-ge
=83	=83
4b-}	aus,}
4r	.
8r	.
{8b-	{und
=84	=84
(8ee-	Blu-
8dd	|
8cc)	|
8b-	-men
8a	o-
(16b-	-der
16cc)	|
=85	=85
2dd	Wun-
8dd	den
8dd	trag'
=86	=86
(8ee-	mor-
8dd	|
8cc)	|
8b-	-gen
8a	ich
(16b-	nach
16cc)	|
=87	=87
2.b-}	Haus.}
==	==
*-	*-
